!!!OTL: Froehlich toent der Becherklang.
!!!OTL-incipit: FROEHLICH TOENT DER BECHERKLANG
!!!COM: D. Weis
!!!ARE: Europa, Mitteleuropa, Deutschland
!!!SCT: F0511
!!!TXL: @@DE
!!!YEM: Copyright 1995, estate of Helmut Schaffrath.
**kern	**text
*ICvox	*
*clefG2	*
*M4/4	*
*met(c)	*
*k[]	*
*C:	*
=1	=1
!LO:TX:a:t=Solo.	!
!LO:TX:a:t=Heiter.	!
!LO:TX:a:t=P:only the highest voice encoded:problem	!
{4g	Fröhlich
8eL	.
8gJ	.
4cc/	tönt
8ee/L	der
8ccJ	.
=2	=2
4g	Becherklang
4g	.
4g	.
4r}	.
=3	=3
{4.cc/	im
8b/	ver-
8aL	-trau-
8gJ	.
8fL	-ten
8eJ	.
=4	=4
2e	Krei-
4d	-ſe,
4r}	.
=5	=5
{4g	Lieb-
8eL	-lich
8gJ	.
4cc/	ſchallt
8ee/L	ein
8ccJ	.
=6	=6
4g	Rundge-
4g	.
4g	-ſang
4r}	.
=7	=7
{4.cc/	nach
8b/	der
8aL	Vä-
8gJ	.
8fL	-ter
8eJ	.
=8	=8
2e	Wei-
4d	-ſe.
4r}	.
=9	=9
{4b^^/	Brüder,
4dd/	.
4dd/	freut
4dd/	euch
=10	=10
(4.dd/	al-
8cc/)	.
4b/	-le;
4r}	.
=11	=11
{4g^^	Brüder,
4dd/	.
4dd/	trinket
4dd/	.
=12	=12
(4.dd/	al-
8cc/)	.
4b/	-le!
4r}	.
=13	=13
{4.ff^^	ſingt
8ff	mit
4ee	lau-
8gg/L	-tem
8ffJ	.
=14	=14
2ee/	Schal-
4dd/	-le:
4r}	.
=15	=15
!LO:TX:a:t=Das ʒweite Mal Alle.	!
{4cc/	Traute
4g	.
4e	Brüder,
4g	.
=16	=16
4cc/	ſchenket
4dd/	.
4ee/	ein,
4r}	.
=17	=17
{4.dd/	ſto-
8ee/	-ßet
8gg/L	an
8ffJ	.
8ee/L	und
8ddJ	.
=18	=18
4cc/	trinkt
4b/	den
4cc/	Wein.
4r}	.
=19	=19
{4cc/	Traute
4g	.
4e	Brüder,
4g	.
=20	=20
4cc/	ſchenket
4dd/	.
4ee/	ein,
4r}	.
=21	=21
{4.dd/	ſto-
8ee/	-ßet
8gg/L	an
8ffJ	.
8ee/L	und
8ddJ	.
=22	=22
4cc/	trinkt
4b/	den
4cc/	Wein.
4r}	.
==	==
!!!AGN: Studenten -, Trink - Lied
!!!ONB: ESAC (Essen Associative Code) Database: FINK
!!!AMT: simple quadruple
!!!AIN: vox
!!!EED: Helmut Schaffrath
!!!EEV: 1.0
!!!GTL: Studentenlieder
!!Text: Studentenlied
!!!source: Musikalischer Hausschatz der Deutschen. Eine Sammlung von über 1000 Liedern und Gesängen mit Singstimmen und Klavierbegleitung. Leipzig, Litterarisches Verlags-Haus.
!!!page: 324
!!!URL-scan: https://www.digitale-sammlungen.de/en/view/bsb11144622?page=301
!!!ENC: Anna Maria Matuszewska
!!!EEV: 2024/01/08
*-	*-